X:52
T:Burkholder Post No 115 G.A.R.
S:American Veteran Fifer #52
C:By A.F. Hopkins, Yellowsprings, O.
M:2/4
L:1/8
Q:1/8=180
K:D 
%%MIDI program 72
%%MIDI transpose 8
%%MIDI ratio 3 1
DF AB/c/ | defg | ea dc/d/ | e/d/c/B/ A>F |
DF AB/c/ | defg | ed c/A/B/c/ | dfdz :|
|: g e2 e | fa2a | fa dc/d/ | e/d/c/B/ A>f |
ge2e | fa2a | dd c/A/B/c/ | dfdz :|



